X:114
T:Untitled.#44 JBs.114
S:Jas.Blackshaw MS, 1837, N.Shropshire
A:North Shropshire
Z:T. Weatherall 2006
M:2/4
L:1/16
Q:1/4=100
R:Set Tune
K:F
fd|c2FG A2B2|AGAB A2fd|c2FG A2B2|c6ag|!
f2FG A2B2|AGAB A2cB|Acfg a2g2|f4z2:|!
|:b2|b2g2g2e2|e2c2c2c2|f4g4|a4z2b2|!
b2g2g2e2|e2c2c2B2|Acfg a2g2|f4z2:|!
|:c2|fefg a2g2|f2d2c2A2|fefg a2f2|g6c2|!
fefg a2g2|f2d2c2B2|Acfg a2g2|f4 z2:|!
|:ba|b2g^f g2e^d|e2c=B c2c2|f2z2g2z2|a2z2 z2ba|!
b2g^f g2e^d|e2c=B c2cB|Acfg a2g2|f4z2:|

